X: 17359
T: High Hill, The
R: reel
M: 4/4
K: Dmajor
FG|:AD~D2 A,D ~D2|ABcA dcAG|AD~D2 A,DFA|GE=cG ECEG|
AD~D2 A,D ~D2|AGAB =c3e|d=cAG FGAF|GECE D2FG:|
|:Addc d3 d|{ef}e2 d {ef}e2 d d=c|AGAB =cBcd|e=c (3ccc ecdc|
Addc d3 d|{ef}e2 d {ef}e2 d d=c|AGAB =cded|=cAGE D2FG:|

